flaticon/symbols/commitment.svg

<svg xmlns="http://www.w3.org/2000/svg" width="32" height="32" viewBox="0 0 24 24">
    <path d="M 12 6 C 12 2.691406 9.308594 0 6 0 C 2.691406 0 0 2.691406 0 6 C 0 9.308594 2.691406 12 6 12 C 9.308594 12 12 9.308594 12 6 Z M 6 11.171875 C 3.148438 11.171875 0.828125 8.851562 0.828125 6 C 0.828125 3.148438 3.148438 0.828125 6 0.828125 C 8.851562 0.828125 11.171875 3.148438 11.171875 6 C 11.171875 8.851562 8.851562 11.171875 6 11.171875 Z M 6 11.171875"/>
    <path d="M7.449219 1.910156L7.449219 1.894531 7.304688 1.855469C7.273438 1.84375 7.238281 1.839844 7.203125 1.828125L7.144531 1.8125C7.136719 1.808594 7.132812 1.808594 7.125 1.808594 6.960938 1.761719 6.789062 1.730469 6.617188 1.703125 6.59375 1.699219 6.570312 1.695312 6.542969 1.691406 6.367188 1.671875 6.183594 1.65625 6 1.65625 5.816406 1.65625 5.632812 1.671875 5.457031 1.691406 5.429688 1.695312 5.40625 1.699219 5.382812 1.703125 5.210938 1.730469 5.039062 1.761719 4.875 1.808594 4.867188 1.808594 4.863281 1.808594 4.855469 1.8125L4.796875 1.828125C4.761719 1.839844 4.726562 1.84375 4.695312 1.855469L4.550781 1.894531 4.550781 1.910156C2.867188 2.507812 1.65625 4.113281 1.65625 6 1.65625 8.394531 3.605469 10.34375 6 10.34375 8.394531 10.34375 10.34375 8.394531 10.34375 6 10.34375 4.113281 9.132812 2.507812 7.449219 1.910156zM5.378906 2.542969C5.386719 2.539062 5.390625 2.539062 5.394531 2.539062 5.492188 2.523438 5.585938 2.507812 5.679688 2.5 5.777344 2.492188 5.875 2.484375 5.972656 2.484375 5.992188 2.484375 6.007812 2.484375 6.027344 2.484375 6.125 2.484375 6.222656 2.492188 6.320312 2.5 6.414062 2.507812 6.507812 2.523438 6.605469 2.539062 6.609375 2.539062 6.613281 2.539062 6.621094 2.542969L6.621094 2.964844C6.601562 2.960938 6.582031 2.960938 6.5625 2.957031 6.5 2.941406 6.433594 2.933594 6.363281 2.921875 6.335938 2.917969 6.308594 2.914062 6.28125 2.914062 6.1875 2.902344 6.09375 2.898438 6 2.898438 5.90625 2.898438 5.8125 2.902344 5.71875 2.914062 5.691406 2.914062 5.664062 2.917969 5.636719 2.921875 5.566406 2.933594 5.5 2.941406 5.4375 2.957031 5.417969 2.960938 5.398438 2.960938 5.378906 2.964844zM5.191406 3.90625C5.199219 3.902344 5.207031 3.902344 5.210938 3.898438 5.273438 3.867188 5.339844 3.84375 5.410156 3.820312 5.4375 3.8125 5.46875 3.800781 5.496094 3.792969 5.539062 3.78125 5.582031 3.773438 5.625 3.765625 5.671875 3.757812 5.71875 3.746094 5.769531 3.742188 5.785156 3.738281 5.800781 3.738281 5.820312 3.738281 5.9375 3.726562 6.0625 3.726562 6.183594 3.738281 6.199219 3.738281 6.214844 3.738281 6.230469 3.742188 6.28125 3.746094 6.328125 3.757812 6.375 3.765625 6.417969 3.773438 6.460938 3.78125 6.503906 3.792969 6.53125 3.800781 6.5625 3.8125 6.589844 3.820312 6.660156 3.84375 6.726562 3.867188 6.789062 3.898438 6.792969 3.902344 6.800781 3.902344 6.808594 3.90625 7.191406 4.09375 7.449219 4.410156 7.449219 4.757812 7.449219 5.320312 6.785156 5.792969 6 5.792969 5.214844 5.792969 4.550781 5.320312 4.550781 4.757812 4.550781 4.410156 4.808594 4.09375 5.191406 3.90625zM6 9.515625C4.0625 9.515625 2.484375 7.9375 2.484375 6 2.484375 4.578125 3.332031 3.351562 4.550781 2.796875L4.550781 3.324219C4.046875 3.664062 3.722656 4.183594 3.722656 4.757812 3.722656 5.785156 4.746094 6.621094 6 6.621094 7.253906 6.621094 8.277344 5.785156 8.277344 4.757812 8.277344 4.183594 7.953125 3.664062 7.449219 3.324219L7.449219 2.796875C8.667969 3.351562 9.515625 4.578125 9.515625 6 9.515625 7.9375 7.9375 9.515625 6 9.515625zM18 12C21.308594 12 24 9.308594 24 6 24 2.691406 21.308594 0 18 0 14.691406 0 12 2.691406 12 6 12 9.308594 14.691406 12 18 12zM18 .828125C20.851562.828125 23.171875 3.148438 23.171875 6 23.171875 8.851562 20.851562 11.171875 18 11.171875 15.148438 11.171875 12.828125 8.851562 12.828125 6 12.828125 3.148438 15.148438.828125 18 .828125zM18 .828125"/>
    <path d="M18 10.34375C20.394531 10.34375 22.34375 8.394531 22.34375 6 22.34375 4.113281 21.132812 2.507812 19.449219 1.910156L19.449219 1.894531 19.304688 1.855469C19.273438 1.84375 19.238281 1.839844 19.203125 1.828125L19.144531 1.8125C19.136719 1.808594 19.132812 1.808594 19.125 1.808594 18.960938 1.761719 18.789062 1.730469 18.617188 1.703125 18.59375 1.699219 18.570312 1.695312 18.542969 1.691406 18.367188 1.671875 18.183594 1.65625 18 1.65625 17.816406 1.65625 17.632812 1.671875 17.457031 1.691406 17.429688 1.695312 17.40625 1.699219 17.382812 1.703125 17.210938 1.730469 17.039062 1.761719 16.875 1.808594 16.867188 1.808594 16.863281 1.808594 16.855469 1.8125L16.796875 1.828125C16.761719 1.839844 16.726562 1.84375 16.695312 1.855469L16.550781 1.894531 16.550781 1.910156C14.867188 2.507812 13.65625 4.113281 13.65625 6 13.65625 8.394531 15.605469 10.34375 18 10.34375zM17.378906 2.542969C17.386719 2.539062 17.390625 2.539062 17.394531 2.539062 17.492188 2.523438 17.585938 2.507812 17.679688 2.5 17.777344 2.492188 17.875 2.484375 17.972656 2.484375 17.992188 2.484375 18.007812 2.484375 18.027344 2.484375 18.125 2.484375 18.222656 2.492188 18.320312 2.5 18.414062 2.507812 18.507812 2.523438 18.605469 2.539062 18.609375 2.539062 18.613281 2.539062 18.621094 2.542969L18.621094 2.964844C18.601562 2.960938 18.582031 2.960938 18.5625 2.957031 18.5 2.941406 18.433594 2.933594 18.363281 2.921875 18.335938 2.917969 18.308594 2.914062 18.28125 2.914062 18.1875 2.902344 18.09375 2.898438 18 2.898438 17.90625 2.898438 17.8125 2.902344 17.71875 2.914062 17.691406 2.914062 17.664062 2.917969 17.636719 2.921875 17.566406 2.933594 17.5 2.941406 17.4375 2.957031 17.417969 2.960938 17.398438 2.960938 17.378906 2.964844zM17.191406 3.90625C17.199219 3.902344 17.207031 3.902344 17.210938 3.898438 17.273438 3.867188 17.339844 3.84375 17.410156 3.820312 17.4375 3.8125 17.46875 3.800781 17.496094 3.792969 17.539062 3.78125 17.582031 3.773438 17.625 3.765625 17.671875 3.757812 17.71875 3.746094 17.769531 3.742188 17.785156 3.738281 17.800781 3.738281 17.820312 3.738281 17.9375 3.726562 18.0625 3.726562 18.183594 3.738281 18.199219 3.738281 18.214844 3.738281 18.230469 3.742188 18.28125 3.746094 18.328125 3.757812 18.375 3.765625 18.417969 3.773438 18.460938 3.78125 18.503906 3.792969 18.53125 3.800781 18.5625 3.8125 18.589844 3.820312 18.660156 3.84375 18.726562 3.867188 18.789062 3.898438 18.792969 3.902344 18.800781 3.902344 18.808594 3.90625 19.191406 4.09375 19.449219 4.410156 19.449219 4.757812 19.449219 5.320312 18.785156 5.792969 18 5.792969 17.214844 5.792969 16.550781 5.320312 16.550781 4.757812 16.550781 4.410156 16.808594 4.09375 17.191406 3.90625zM16.550781 2.796875L16.550781 3.324219C16.046875 3.664062 15.722656 4.179688 15.722656 4.757812 15.722656 5.785156 16.746094 6.621094 18 6.621094 19.253906 6.621094 20.277344 5.785156 20.277344 4.757812 20.277344 4.183594 19.953125 3.664062 19.449219 3.324219L19.449219 2.796875C20.667969 3.351562 21.515625 4.578125 21.515625 6 21.515625 7.9375 19.9375 9.515625 18 9.515625 16.0625 9.515625 14.484375 7.9375 14.484375 6 14.484375 4.578125 15.332031 3.351562 16.550781 2.796875zM6 12C2.691406 12 0 14.691406 0 18 0 21.308594 2.691406 24 6 24 9.308594 24 12 21.308594 12 18 12 14.691406 9.308594 12 6 12zM6 23.171875C3.148438 23.171875.828125 20.851562.828125 18 .828125 15.148438 3.148438 12.828125 6 12.828125 8.851562 12.828125 11.171875 15.148438 11.171875 18 11.171875 20.851562 8.851562 23.171875 6 23.171875zM6 23.171875"/>
    <path d="M7.449219 13.910156L7.449219 13.894531 7.304688 13.855469C7.273438 13.84375 7.238281 13.839844 7.203125 13.828125L7.144531 13.8125C7.136719 13.808594 7.132812 13.808594 7.125 13.808594 6.960938 13.761719 6.789062 13.730469 6.617188 13.703125 6.59375 13.699219 6.570312 13.695312 6.542969 13.691406 6.367188 13.671875 6.183594 13.65625 6 13.65625 5.816406 13.65625 5.632812 13.671875 5.457031 13.691406 5.429688 13.695312 5.40625 13.699219 5.382812 13.703125 5.210938 13.730469 5.039062 13.761719 4.875 13.808594 4.867188 13.808594 4.863281 13.808594 4.855469 13.8125L4.796875 13.828125C4.761719 13.839844 4.726562 13.84375 4.695312 13.855469L4.550781 13.894531 4.550781 13.910156C2.867188 14.507812 1.65625 16.113281 1.65625 18 1.65625 20.394531 3.605469 22.34375 6 22.34375 8.394531 22.34375 10.34375 20.394531 10.34375 18 10.34375 16.113281 9.132812 14.507812 7.449219 13.910156zM5.378906 14.542969C5.386719 14.539062 5.390625 14.539062 5.394531 14.539062 5.492188 14.523438 5.585938 14.507812 5.679688 14.5 5.777344 14.492188 5.875 14.484375 5.972656 14.484375 5.992188 14.484375 6.007812 14.484375 6.027344 14.484375 6.125 14.484375 6.222656 14.492188 6.320312 14.5 6.414062 14.507812 6.507812 14.523438 6.605469 14.539062 6.609375 14.539062 6.613281 14.539062 6.621094 14.542969L6.621094 14.964844C6.601562 14.960938 6.582031 14.960938 6.5625 14.957031 6.5 14.941406 6.433594 14.933594 6.363281 14.921875 6.335938 14.917969 6.308594 14.914062 6.28125 14.914062 6.1875 14.902344 6.09375 14.898438 6 14.898438 5.90625 14.898438 5.8125 14.902344 5.71875 14.914062 5.691406 14.914062 5.664062 14.917969 5.636719 14.921875 5.566406 14.933594 5.5 14.941406 5.4375 14.957031 5.417969 14.960938 5.398438 14.960938 5.378906 14.964844zM5.191406 15.90625C5.199219 15.902344 5.207031 15.902344 5.210938 15.898438 5.273438 15.867188 5.339844 15.84375 5.410156 15.820312 5.4375 15.8125 5.46875 15.800781 5.496094 15.792969 5.539062 15.78125 5.582031 15.773438 5.625 15.765625 5.671875 15.757812 5.71875 15.746094 5.769531 15.742188 5.785156 15.738281 5.800781 15.738281 5.820312 15.738281 5.9375 15.726562 6.0625 15.726562 6.183594 15.738281 6.199219 15.738281 6.214844 15.738281 6.230469 15.742188 6.28125 15.746094 6.328125 15.757812 6.375 15.765625 6.417969 15.773438 6.460938 15.78125 6.503906 15.792969 6.53125 15.800781 6.5625 15.8125 6.589844 15.820312 6.660156 15.84375 6.726562 15.867188 6.789062 15.898438 6.792969 15.902344 6.800781 15.902344 6.808594 15.90625 7.191406 16.09375 7.449219 16.410156 7.449219 16.757812 7.449219 17.320312 6.785156 17.792969 6 17.792969 5.214844 17.792969 4.550781 17.320312 4.550781 16.757812 4.550781 16.410156 4.808594 16.09375 5.191406 15.90625zM6 21.515625C4.0625 21.515625 2.484375 19.9375 2.484375 18 2.484375 16.578125 3.332031 15.351562 4.550781 14.796875L4.550781 15.324219C4.046875 15.664062 3.722656 16.179688 3.722656 16.757812 3.722656 17.785156 4.746094 18.621094 6 18.621094 7.253906 18.621094 8.277344 17.785156 8.277344 16.757812 8.277344 16.183594 7.953125 15.664062 7.449219 15.324219L7.449219 14.796875C8.667969 15.351562 9.515625 16.578125 9.515625 18 9.515625 19.9375 7.9375 21.515625 6 21.515625zM18 12C14.691406 12 12 14.691406 12 18 12 21.308594 14.691406 24 18 24 21.308594 24 24 21.308594 24 18 24 14.691406 21.308594 12 18 12zM18 23.171875C15.148438 23.171875 12.828125 20.851562 12.828125 18 12.828125 15.148438 15.148438 12.828125 18 12.828125 20.851562 12.828125 23.171875 15.148438 23.171875 18 23.171875 20.851562 20.851562 23.171875 18 23.171875zM18 23.171875"/>
    <path d="M 19.449219 13.910156 L 19.449219 13.894531 L 19.304688 13.855469 C 19.273438 13.84375 19.238281 13.839844 19.203125 13.828125 L 19.144531 13.8125 C 19.136719 13.808594 19.132812 13.808594 19.125 13.808594 C 18.960938 13.761719 18.789062 13.730469 18.617188 13.703125 C 18.59375 13.699219 18.570312 13.695312 18.542969 13.691406 C 18.367188 13.671875 18.183594 13.65625 18 13.65625 C 17.816406 13.65625 17.632812 13.671875 17.457031 13.691406 C 17.429688 13.695312 17.40625 13.699219 17.382812 13.703125 C 17.210938 13.730469 17.039062 13.761719 16.875 13.808594 C 16.867188 13.808594 16.863281 13.808594 16.855469 13.8125 L 16.796875 13.828125 C 16.761719 13.839844 16.726562 13.84375 16.695312 13.855469 L 16.550781 13.894531 L 16.550781 13.910156 C 14.867188 14.507812 13.65625 16.113281 13.65625 18 C 13.65625 20.394531 15.605469 22.34375 18 22.34375 C 20.394531 22.34375 22.34375 20.394531 22.34375 18 C 22.34375 16.113281 21.132812 14.507812 19.449219 13.910156 Z M 17.378906 14.542969 C 17.386719 14.539062 17.390625 14.539062 17.394531 14.539062 C 17.492188 14.523438 17.585938 14.507812 17.679688 14.5 C 17.777344 14.492188 17.875 14.484375 17.972656 14.484375 C 17.992188 14.484375 18.007812 14.484375 18.027344 14.484375 C 18.125 14.484375 18.222656 14.492188 18.320312 14.5 C 18.414062 14.507812 18.507812 14.523438 18.605469 14.539062 C 18.609375 14.539062 18.613281 14.539062 18.621094 14.542969 L 18.621094 14.964844 C 18.601562 14.960938 18.582031 14.960938 18.5625 14.957031 C 18.5 14.941406 18.433594 14.933594 18.363281 14.921875 C 18.335938 14.917969 18.308594 14.914062 18.28125 14.914062 C 18.1875 14.902344 18.09375 14.898438 18 14.898438 C 17.90625 14.898438 17.8125 14.902344 17.71875 14.914062 C 17.691406 14.914062 17.664062 14.917969 17.636719 14.921875 C 17.566406 14.933594 17.5 14.941406 17.4375 14.957031 C 17.417969 14.960938 17.398438 14.960938 17.378906 14.964844 Z M 17.191406 15.90625 C 17.199219 15.902344 17.207031 15.902344 17.210938 15.898438 C 17.273438 15.867188 17.339844 15.84375 17.410156 15.820312 C 17.4375 15.8125 17.46875 15.800781 17.496094 15.792969 C 17.539062 15.78125 17.582031 15.773438 17.625 15.765625 C 17.671875 15.757812 17.71875 15.746094 17.769531 15.742188 C 17.785156 15.738281 17.800781 15.738281 17.820312 15.738281 C 17.9375 15.726562 18.0625 15.726562 18.183594 15.738281 C 18.199219 15.738281 18.214844 15.738281 18.230469 15.742188 C 18.28125 15.746094 18.328125 15.757812 18.375 15.765625 C 18.417969 15.773438 18.460938 15.78125 18.503906 15.792969 C 18.53125 15.800781 18.5625 15.8125 18.589844 15.820312 C 18.660156 15.84375 18.726562 15.867188 18.789062 15.898438 C 18.792969 15.902344 18.800781 15.902344 18.808594 15.90625 C 19.191406 16.09375 19.449219 16.410156 19.449219 16.757812 C 19.449219 17.320312 18.785156 17.792969 18 17.792969 C 17.214844 17.792969 16.550781 17.320312 16.550781 16.757812 C 16.550781 16.410156 16.808594 16.09375 17.191406 15.90625 Z M 18 21.515625 C 16.0625 21.515625 14.484375 19.9375 14.484375 18 C 14.484375 16.578125 15.332031 15.351562 16.550781 14.796875 L 16.550781 15.324219 C 16.046875 15.664062 15.722656 16.179688 15.722656 16.757812 C 15.722656 17.785156 16.746094 18.621094 18 18.621094 C 19.253906 18.621094 20.277344 17.785156 20.277344 16.757812 C 20.277344 16.183594 19.953125 15.664062 19.449219 15.324219 L 19.449219 14.796875 C 20.667969 15.351562 21.515625 16.578125 21.515625 18 C 21.515625 19.9375 19.9375 21.515625 18 21.515625 Z M 18 21.515625"/>
</svg>

<svg xmlns="http://www.w3.org/2000/svg" width="32" height="32" viewBox="0 0 24 24">
    <path d="M12 6c0-3.309-2.691-6-6-6S0 2.691 0 6s2.691 6 6 6 6-2.691 6-6zm-6 5.172A5.178 5.178 0 0 1 .828 6 5.178 5.178 0 0 1 6 .828 5.178 5.178 0 0 1 11.172 6 5.178 5.178 0 0 1 6 11.172zm0 0"/>
    <path d="M7.45 1.91v-.015l-.145-.04c-.032-.011-.067-.015-.102-.027l-.058-.016c-.008-.003-.012-.003-.02-.003a4.333 4.333 0 0 0-.508-.106l-.074-.012A4.939 4.939 0 0 0 6 1.656c-.184 0-.367.016-.543.035l-.074.012a4.333 4.333 0 0 0-.508.106c-.008 0-.012 0-.02.004l-.058.015c-.035.012-.07.016-.102.027l-.144.04v.015A4.346 4.346 0 0 0 1.656 6 4.35 4.35 0 0 0 6 10.344 4.35 4.35 0 0 0 10.344 6a4.346 4.346 0 0 0-2.895-4.09zm-2.071.633c.008-.004.012-.004.016-.004.097-.016.19-.031.285-.039.097-.008.195-.016.293-.016h.054c.098 0 .196.008.293.016.094.008.188.023.285.04a.03.03 0 0 1 .016.003v.422c-.02-.004-.039-.004-.059-.008-.062-.016-.128-.023-.199-.035-.027-.004-.054-.008-.082-.008A2.263 2.263 0 0 0 6 2.898c-.094 0-.188.004-.281.016-.028 0-.055.004-.082.008-.07.012-.137.02-.2.035-.019.004-.039.004-.058.008zM5.19 3.906c.008-.004.016-.004.02-.008a1.51 1.51 0 0 1 .2-.078c.027-.007.058-.02.085-.027.043-.012.086-.02.129-.027.047-.008.094-.02.145-.024.015-.004.03-.004.05-.004a1.881 1.881 0 0 1 .41.004c.051.004.098.016.145.024.043.007.086.015.129.027.027.008.059.02.086.027.07.024.137.047.2.078.003.004.01.004.019.008.382.188.64.504.64.852 0 .562-.664 1.035-1.449 1.035S4.55 5.32 4.55 4.758c0-.348.259-.664.641-.852zM6 9.516A3.52 3.52 0 0 1 2.484 6c0-1.422.848-2.648 2.067-3.203v.527c-.504.34-.828.86-.828 1.434C3.723 5.785 4.746 6.62 6 6.62c1.254 0 2.277-.836 2.277-1.863 0-.574-.324-1.094-.828-1.434v-.527A3.521 3.521 0 0 1 9.516 6 3.52 3.52 0 0 1 6 9.516zm0 0M18 12c3.309 0 6-2.691 6-6s-2.691-6-6-6-6 2.691-6 6 2.691 6 6 6zM18 .828A5.178 5.178 0 0 1 23.172 6 5.178 5.178 0 0 1 18 11.172 5.178 5.178 0 0 1 12.828 6 5.178 5.178 0 0 1 18 .828zm0 0"/>
    <path d="M18 10.344A4.35 4.35 0 0 0 22.344 6a4.346 4.346 0 0 0-2.895-4.09v-.015l-.144-.04c-.032-.011-.067-.015-.102-.027l-.058-.016c-.008-.003-.012-.003-.02-.003a4.333 4.333 0 0 0-.508-.106l-.074-.012A4.939 4.939 0 0 0 18 1.656c-.184 0-.367.016-.543.035l-.074.012a4.333 4.333 0 0 0-.508.106c-.008 0-.012 0-.02.004l-.058.015c-.035.012-.07.016-.102.027l-.144.04v.015A4.346 4.346 0 0 0 13.656 6 4.35 4.35 0 0 0 18 10.344zm-.621-7.801c.008-.004.012-.004.016-.004.097-.016.19-.031.285-.039.097-.008.195-.016.293-.016h.054c.098 0 .196.008.293.016.094.008.188.023.285.04a.03.03 0 0 1 .016.003v.422c-.02-.004-.039-.004-.058-.008-.063-.016-.13-.023-.2-.035-.027-.004-.054-.008-.082-.008A2.263 2.263 0 0 0 18 2.898c-.094 0-.188.004-.281.016-.028 0-.055.004-.082.008-.07.012-.137.02-.2.035-.019.004-.039.004-.058.008zm-.188 1.363c.008-.004.016-.004.02-.008a1.51 1.51 0 0 1 .2-.078c.026-.007.058-.02.085-.027.043-.012.086-.02.129-.027.047-.008.094-.02.145-.024.015-.004.03-.004.05-.004a1.881 1.881 0 0 1 .41.004c.051.004.098.016.145.024.043.007.086.015.129.027.027.008.058.02.086.027.07.024.137.047.2.078.003.004.01.004.019.008.382.188.64.504.64.852 0 .562-.664 1.035-1.449 1.035s-1.45-.473-1.45-1.035c0-.348.259-.664.641-.852zm-.64-1.11v.528c-.504.34-.828.856-.828 1.434 0 1.027 1.023 1.863 2.277 1.863 1.254 0 2.277-.836 2.277-1.863 0-.574-.324-1.094-.828-1.434v-.527A3.521 3.521 0 0 1 21.516 6 3.52 3.52 0 0 1 18 9.516 3.52 3.52 0 0 1 14.484 6c0-1.422.848-2.648 2.067-3.203zm0 0M6 12c-3.309 0-6 2.691-6 6s2.691 6 6 6 6-2.691 6-6-2.691-6-6-6zm0 11.172A5.178 5.178 0 0 1 .828 18 5.178 5.178 0 0 1 6 12.828 5.178 5.178 0 0 1 11.172 18 5.178 5.178 0 0 1 6 23.172zm0 0"/>
    <path d="M7.45 13.91v-.015l-.145-.04c-.032-.011-.067-.015-.102-.027l-.058-.015c-.008-.004-.012-.004-.02-.004a4.333 4.333 0 0 0-.508-.106l-.074-.012A4.939 4.939 0 0 0 6 13.656c-.184 0-.367.016-.543.035l-.074.012a4.333 4.333 0 0 0-.508.106c-.008 0-.012 0-.02.004l-.058.015c-.035.012-.07.016-.102.027l-.144.04v.015A4.346 4.346 0 0 0 1.656 18 4.35 4.35 0 0 0 6 22.344 4.35 4.35 0 0 0 10.344 18a4.346 4.346 0 0 0-2.895-4.09zm-2.071.633c.008-.004.012-.004.016-.004.097-.016.19-.031.285-.039.097-.008.195-.016.293-.016h.054c.098 0 .196.008.293.016.094.008.188.023.285.04a.03.03 0 0 1 .016.003v.422c-.02-.004-.039-.004-.059-.008-.062-.016-.128-.023-.199-.035-.027-.004-.054-.008-.082-.008A2.263 2.263 0 0 0 6 14.898c-.094 0-.188.004-.281.016-.028 0-.055.004-.082.008-.07.012-.137.02-.2.035-.019.004-.039.004-.058.008zm-.188 1.363c.008-.004.016-.004.02-.008a1.51 1.51 0 0 1 .2-.078c.027-.008.058-.02.085-.027.043-.012.086-.02.129-.027.047-.008.094-.02.145-.024.015-.004.03-.004.05-.004a1.881 1.881 0 0 1 .41.004c.051.004.098.016.145.024.043.007.086.015.129.027.027.008.059.02.086.027.07.024.137.047.2.078.003.004.01.004.019.008.382.188.64.504.64.852 0 .562-.664 1.035-1.449 1.035s-1.45-.473-1.45-1.035c0-.348.259-.664.641-.852zM6 21.516A3.52 3.52 0 0 1 2.484 18c0-1.422.848-2.648 2.067-3.203v.527c-.504.34-.828.856-.828 1.434 0 1.027 1.023 1.863 2.277 1.863 1.254 0 2.277-.836 2.277-1.863 0-.574-.324-1.094-.828-1.434v-.527A3.521 3.521 0 0 1 9.516 18 3.52 3.52 0 0 1 6 21.516zm0 0M18 12c-3.309 0-6 2.691-6 6s2.691 6 6 6 6-2.691 6-6-2.691-6-6-6zm0 11.172A5.178 5.178 0 0 1 12.828 18 5.178 5.178 0 0 1 18 12.828 5.178 5.178 0 0 1 23.172 18 5.178 5.178 0 0 1 18 23.172zm0 0"/>
    <path d="M19.45 13.91v-.015l-.145-.04c-.032-.011-.067-.015-.102-.027l-.058-.015c-.008-.004-.012-.004-.02-.004a4.333 4.333 0 0 0-.508-.106l-.074-.012a4.939 4.939 0 0 0-.543-.035c-.184 0-.367.016-.543.035l-.074.012a4.333 4.333 0 0 0-.508.106c-.008 0-.012 0-.02.004l-.058.015c-.035.012-.07.016-.102.027l-.144.04v.015A4.346 4.346 0 0 0 13.656 18 4.35 4.35 0 0 0 18 22.344 4.35 4.35 0 0 0 22.344 18a4.346 4.346 0 0 0-2.895-4.09zm-2.071.633c.008-.004.012-.004.016-.004.097-.016.19-.031.285-.039.097-.008.195-.016.293-.016h.054c.098 0 .196.008.293.016.094.008.188.023.285.04a.03.03 0 0 1 .016.003v.422c-.02-.004-.039-.004-.058-.008-.063-.016-.13-.023-.2-.035-.027-.004-.054-.008-.082-.008a2.263 2.263 0 0 0-.281-.016c-.094 0-.188.004-.281.016-.028 0-.055.004-.082.008-.07.012-.137.02-.2.035-.019.004-.039.004-.058.008zm-.188 1.363c.008-.004.016-.004.02-.008a1.51 1.51 0 0 1 .2-.078c.026-.008.058-.02.085-.027.043-.012.086-.02.129-.027.047-.008.094-.02.145-.024.015-.004.03-.004.05-.004a1.881 1.881 0 0 1 .41.004c.051.004.098.016.145.024.043.007.086.015.129.027.027.008.058.02.086.027.07.024.137.047.2.078.003.004.01.004.019.008.382.188.64.504.64.852 0 .562-.664 1.035-1.449 1.035s-1.45-.473-1.45-1.035c0-.348.259-.664.641-.852zm.809 5.61A3.52 3.52 0 0 1 14.484 18c0-1.422.848-2.648 2.067-3.203v.527c-.504.34-.828.856-.828 1.434 0 1.027 1.023 1.863 2.277 1.863 1.254 0 2.277-.836 2.277-1.863 0-.574-.324-1.094-.828-1.434v-.527A3.521 3.521 0 0 1 21.516 18 3.52 3.52 0 0 1 18 21.516zm0 0"/>
</svg>
